X:1083
M:C|
L:1/8
Q:1/2=112
K:D
  AFDA BGAF|   GBFA     BEEF/G/|FAd=c BGed|cA {a}gf/e/ fdd||
f|defg afdf|{b}ag/f/ df geef   |defg  afdA|Bgfe        fddf|
  defg afdf|{b}ag/f/ df geeg   |fdaf  gebg|fdAc        dDD|]

